X:1
T:Be a Cheering Light
T:Amelia M. Gabriel
T:Be a Cheering Light
T:Public Domain
T:Public Domain
C:Amelia M. Gabriel
Z:Public Domain
%%score ( 1 2 ) ( 3 4 )
L:1/8
M:4/4
K:Eb
V:1 treble 
V:2 treble 
V:3 bass 
V:4 bass 
V:1
 [EG]>[EG] [EG]>[EG] [EG]2 [GB]2 | [GB]>[FA] [FA]>[=EG] [FA]4 | [DF]>[EG] [FA]>[GB] [Ac]2 [Ad]2 | %3
w: 1.~As thro’ life you jour- ney,|Be a cheer- ing light,|Like the sun at morn- ing,|
w: 2.~Like a bea- con burn- ing|On a hill at night,|You may shed a- round you|
w: 3.~Stead- i- ly and bright- ly,|Shin- ing day by day,|You will scat- ter bless- ings|
 [Ac]>[GB] [GB]>[^F=A] [GB]4 | [EG]>[EG] [EG]>[EG] [EG]2 [GB]2 | [GB]>[FA] [FA]>[=EG] [FA]4 | %6
w: Beau- ti- ful and bright;|Shine in gloom- y plac- es,|As you pass them by,|
w: Hap- pi- ness and light;|Try to help the wear- y,|Thro’ the drear- y days,|
w: All a- long the way;|Less of care and sor- row,|Ma- ny hearts will know,|
 [DF]>[EG] [FA]>[GB] [Ad]2 [Ac]2 | [GB]>[GB] [FA]>[DF] E4 ||"^Refrain" [Ec]2 [Ec]2 [Ee]3 [Ac] | %9
w: Cheer the lives that sor- row,|Glad- den those who sigh.||
w: Try to guide the way- ward,|From for- bid- den ways.|ly, hour- ly, be|
w: If you gleam and glist- en|Ev- ery- where you go.||
 [Ac]>[GB] [GB]>[^F=A] [GB]4 | [GB]2 [FA]2 [Ad]2 [Ac]2 | [Ac]>[GB] [GB]>[^F=A] [GB]4 | %12
w: |||
w: a cheer- ing light, Glow-|ing, gleam- ing, beau-|ti- ful and bright; Like|
w: |||
 [Ac]2 [Ac]2 [Ae]3 [Ac] | [Ac]>[GB] [GB]>[^F=A] [GB]4 | [Fd]2 [Ac]2 [GB]2 [FA]2 | %15
w: |||
w: a bea- con burn-|ing in the night, Glow-|ing, gleam- ing, beau-|
w: |||
 [EG]>[GB] [FA]>[DF] E4 |] %16
w: |
w: ti- ful and bright. *|
w: |
V:2
 x8 | x8 | x8 | x8 | x8 | x8 | x8 | x4 E4 || x8 | x8 | x8 | x8 | x8 | x8 | x8 | x4 E4 |] %16
w: ||||||||||||||||
w: |||||||Dai-|||||||||
V:3
 [E,B,]>[E,B,] [E,B,]>[E,B,] [E,B,]2 [E,B,]2 | [B,,B,]>[B,,B,] [B,,B,]>[B,,B,] [B,,B,]4 | %2
 [B,,B,]>[B,,B,] [B,,B,]>[B,,B,] [B,,B,]2 [B,,B,]2 | E,>[E,G,] [E,B,]>[E,C] [E,E]4 | %4
 [E,B,]>[E,B,] [E,B,]>[E,B,] [E,B,]2 [E,B,]2 | [B,,B,]>[B,,B,] [B,,B,]>[B,,B,] [B,,B,]4 | %6
 [B,,B,]>[B,,B,] [B,,B,]>[B,,B,] [B,,B,]2 [B,,B,]2 | [B,,B,]>[B,,B,] [B,,B,]>[B,,B,] [E,G,]4 || %8
 A,2 A,2 [A,C]3 [A,E] | [E,E]>[E,E] [E,E]>[E,E] [E,E]4 | [B,,E]2 [B,,B,]2 [B,,B,]2 [B,,D]2 | %11
 [E,E]>[E,E] [E,E]>[E,E] [E,E]4 | [A,E]2 [A,E]2 [A,C]3 [A,E] | [E,E]>[E,E] [E,E]>[E,E] [E,E]4 | %14
 B,2 B,2 [B,,B,]2 [B,,B,]2 | [B,,B,]>[B,,B,] [B,,B,]>[B,,B,] [E,G,]4 |] %16
V:4
 x8 | x8 | x8 | E,3/2 x13/2 | x8 | x8 | x8 | x8 || A,2 A,2 x4 | x8 | x8 | x8 | x8 | x8 | %14
 B,2 B,2 x4 | x8 |] %16

